modules/coreui-icons-free/icons/tag.svg

<!-- Generated by IcoMoon.io -->
<svg version="1.1" xmlns="http://www.w3.org/2000/svg" width="24" height="24" viewBox="0 0 24 24">
<title>tag</title>
<path d="M22.776 12.34l-11.151-11.151c-0.27-0.271-0.644-0.439-1.057-0.439-0.001 0-0.003 0-0.004 0h-7.564c-1.242 0.001-2.249 1.008-2.25 2.25v7.551c0.001 0.431 0.182 0.819 0.472 1.093l0.001 0.001 11.862 11.143c0.2 0.189 0.47 0.305 0.767 0.305 0.001 0 0.002 0 0.002 0h-0q0.021 0 0.042-0.001c0.312-0.011 0.59-0.148 0.786-0.362l0.001-0.001 8.125-8.831c0.185-0.199 0.298-0.467 0.298-0.762 0-0.311-0.126-0.592-0.331-0.795l-0-0zM13.836 21.434l-11.586-10.884v-7.551c0-0.414 0.336-0.75 0.75-0.75h7.564l10.897 10.897z"></path>
<path d="M6.938 4.5c-1.346 0-2.438 1.091-2.438 2.438s1.091 2.438 2.438 2.438c1.346 0 2.438-1.091 2.438-2.438v0c-0.002-1.346-1.092-2.436-2.437-2.438h-0zM6.938 7.875c-0.518 0-0.938-0.42-0.938-0.938s0.42-0.938 0.938-0.938c0.518 0 0.938 0.42 0.938 0.938v0c-0.001 0.518-0.42 0.937-0.937 0.938h-0z"></path>
</svg>

<svg xmlns="http://www.w3.org/2000/svg" width="24" height="24" viewBox="0 0 24 24"><path d="M22.776 12.34L11.625 1.189A1.488 1.488 0 0010.568.75H3A2.252 2.252 0 00.75 3v7.551c.001.431.182.819.472 1.093l.001.001 11.862 11.143c.2.189.47.305.767.305h.002l.042-.001c.312-.011.59-.148.786-.362l.001-.001 8.125-8.831c.185-.199.298-.467.298-.762 0-.311-.126-.592-.331-.795zm-8.94 9.094L2.25 10.55V2.999a.75.75 0 01.75-.75h7.564l10.897 10.897z"/><path d="M6.938 4.5a2.438 2.438 0 102.438 2.438A2.441 2.441 0 006.939 4.5zm0 3.375a.938.938 0 11.938-.938.94.94 0 01-.937.938z"/></svg>
